X:8591
T:Kilworth Hills
Z:Jack Campin <http://www.purr.demon.co.uk/jack/> version 1.0 September 2001
C:Geo. S. McLennan
S:G.S.MacLennan, Highland Bagpipe Music book 1
B:NLS MH.s.234
R:Retreat March
M:3/4
L:1/8
Q:1/4=86
V:1
V:2
N:voice 2 bar 3 is |{gAGAG}A4 {gcd}c{e}A| in the book (undotted) - sounds wrong to me
K:Hp
V:1   {g}A>{d}c|  {gef}e2   {A}e2 {gfg}f>d   |  {gef}e2 {d}c2   {gde}d>c   |\
                    {G}A3{d}c     {gef}e>c   |  {gBd}B4           {g}A>{d}c|
V:2   {g}A>{d}c|    {g}c2 {GdG}c2 {Gdc}d>{e}B|  {gcd}c2 {e}A2   {gBd}B>A   |\
                {gAGAG}A4         {gcd}c>{e}A|  {gBd}B4           {g}A>{d}c|
%
V:1               {gef}e2   {A}e2 {gfg}f>d   |  {gef}e2 {d}c2     {g}A>{d}c|\
                  {gef}e3B        {gde}d<c   |    {G}A4                   :|
V:2                 {g}c2 {GdG}c2 {Gdc}d>{e}B|  {gcd}c2 {e}A2 {gAGAG}A2    |\
                  {gcd}c3B        {gBd}B<{e}A|{gAGAG}A4                   :|
%
V:1   {g}f>e   |    {g}f3{gf}g     {ag}a>f   |  {gef}e2 {d}c2   {gde}d>c   |\
                    {G}A3{d}c     {gef}e>c   |  {gBd}B4         {gef}e>d   |
V:2 {Gdc}d>c   |  {Gdc}d3e          {g}f>d   |  {gcd}c2 {e}A2   {gBd}B>A   |\
                {gAGAG}A4         {gcd}c2    |  {gBd}B4         {gcd}c>B   |
%
V:1               {gcd}c3d          {g}e>f   |  {gef}e2 {d}c2     {g}A>{d}c|\
                  {gef}e3B        {gde}d<c   |    {G}A4                   :|
V:2                 {g}A3B        {GdG}c>d   |  {gcd}c2 {e}A2 {gAGAG}A2    |\
                  {gcd}c3B        {gBd}B<{e}A|{gAGAG}A4                   :|
%
V:1   {g}B>c   |  {Gdc}d2 {gdc}d2 {gef}e>d   |    {c}d2 {e}c2   {gcd}c2    |\
                  {GBG}A3{d}c     {gef}e>c   |  {gBd}B4         {Gdc}d>e   |
V:2   {g}B>c   |    {g}B2 {gBG}B2 {gcd}c>B   |  {gBd}B2 {G}A2     {g}A>B   |\
                  {GdG}c3{e}A     {gcd}c2    |  {gBd}B4           {g}B>c   |
%
V:1                 {g}f2   {e}f2 {gef}e2    |   {dc}d2 {e}c2     {g}A>{d}c|\
                  {gef}e3B        {gde}d<c   |    {G}A4                   :|
V:2               {Gdc}d2   {c}d2   {e}c2    |  {gBd}B2 {G}A2 {gAGAG}A2    |\
                  {gcd}c3B        {gBd}B<{e}A|{gAGAG}A4                   :|
%
V:1  {ag}a>g  |     {a}f3{gf}g     {ag}a>f   |  {gef}e2 {d}c2     {g}f>e   |\
                    {g}c3f        {gef}e>c   |  {gBd}B4         {gcd}c2    |
V:2   {g}f>e  |   {Gdc}d3e          {g}f>d   |  {gcd}c2 {e}A2   {gde}d>c   |\
                    {G}A3d        {gcd}c>{e}A|  {gBd}B4           {g}A>B   |
%
V:1               {GBG}A3{d}c       {g}e>f   |  {gef}e2 {d}c2     {g}A>{d}c|\
                  {gef}e3B        {gde}d<c   |    {G}A4                   :|
V:2               {GdG}c3{e}A       {g}c>d   |  {gcd}c2 {e}A2 {gAGAG}A2    |\
                  {gcd}c3B        {gBd}B<A   |{gAGAG}A4                   :|
